X:50
T: ES WAR EINMAL EIN RITTERSMANN
N: E0041
O: Europa, Mitteleuropa, Oesterreich, Steiermark
R: erzaehlendes Volks - Lied, Ritter - Sage
M: 6/8
L: 1/8
K: Bb
F | Bdddff | ecccz
F | Fcccee | dBBB2
F | BAGFED | F2ed2
c | BAGFED | FGAB2

@@@ Tune index: 3700
